packages/react/src/components/base/Icon/assets/icon-graduation-cap.svg

<svg width="24" height="24" viewBox="0 0 24 24" xmlns="http://www.w3.org/2000/svg" fill="currentColor"> <g clip-path="url(#clip0_2085_4106)"> <path d="M23.4187 7.26513L12.5437 1.26513C12.3772 1.17321 12.1901 1.125 12 1.125C11.8098 1.125 11.6227 1.17321 11.4562 1.26513L0.581216 7.26513C0.405377 7.36242 0.258808 7.50504 0.156746 7.67815C0.0546836 7.85126 0.000854492 8.04855 0.000854492 8.24951C0.000854492 8.45047 0.0546836 8.64776 0.156746 8.82087C0.258808 8.99398 0.405377 9.13659 0.581216 9.23388L2.62497 10.3589V14.8364C2.62423 15.2973 2.79422 15.7422 3.10215 16.0851C4.37153 17.5036 7.21872 19.8754 12 19.8754C13.2698 19.8823 14.5335 19.7006 15.75 19.3364V21.7504C15.75 22.0488 15.8685 22.335 16.0795 22.5459C16.2904 22.7569 16.5766 22.8754 16.875 22.8754C17.1733 22.8754 17.4595 22.7569 17.6705 22.5459C17.8814 22.335 18 22.0488 18 21.7504V18.3867C19.0865 17.7865 20.0658 17.01 20.8978 16.0889C21.2057 15.7459 21.3757 15.3011 21.375 14.8401V10.3626L23.4187 9.23763C23.5946 9.14034 23.7411 8.99773 23.8432 8.82462C23.9452 8.65151 23.9991 8.45422 23.9991 8.25326C23.9991 8.0523 23.9452 7.85501 23.8432 7.6819C23.7411 7.50879 23.5946 7.36617 23.4187 7.26888V7.26513ZM12 3.53576L20.5462 8.25045L17.4375 9.96607C17.4316 9.96265 17.426 9.95889 17.4206 9.95482L12.5456 7.26513C12.2853 7.13061 11.9828 7.10294 11.7025 7.18799C11.4221 7.27305 11.186 7.46413 11.0443 7.72058C10.9026 7.97704 10.8666 8.27865 10.9439 8.56126C11.0212 8.84387 11.2056 9.08519 11.4581 9.23388L15.1143 11.2486L12 12.9661L3.45372 8.25045L12 3.53576ZM12 17.6254C8.21059 17.6254 5.93903 15.8376 4.87497 14.6939V11.6001L11.4562 15.232C11.6227 15.3239 11.8098 15.3721 12 15.3721C12.1901 15.3721 12.3772 15.3239 12.5437 15.232L15.75 13.4667V16.957C14.552 17.4098 13.2805 17.6364 12 17.6254ZM19.125 14.6939C18.78 15.0636 18.4036 15.4027 18 15.7073V12.2245L19.125 11.6039V14.6939Z"/> </g> <defs> <clipPath id="clip0_2085_4106"> <rect width="24" height="24"/> </clipPath> </defs> </svg>

<svg viewBox="0 0 24 24" xmlns="http://www.w3.org/2000/svg" aria-hidden="true" fill="currentColor"><g clip-path="url(#a)"><path d="m23.419 7.265-10.875-6a1.13 1.13 0 0 0-1.088 0l-10.875 6a1.125 1.125 0 0 0 0 1.969l2.044 1.125v4.477c0 .461.17.906.477 1.25 1.27 1.418 4.117 3.79 8.898 3.79 1.27.006 2.534-.175 3.75-.54v2.414a1.125 1.125 0 1 0 2.25 0v-3.363a11.2 11.2 0 0 0 2.898-2.298c.308-.343.478-.788.477-1.249v-4.477l2.044-1.125a1.125 1.125 0 0 0 0-1.97zM12 3.535l8.546 4.715-3.108 1.716-.017-.011-4.875-2.69a1.125 1.125 0 0 0-1.088 1.969l3.656 2.015L12 12.966 3.454 8.25zm0 14.09c-3.79 0-6.061-1.787-7.125-2.931V11.6l6.581 3.632a1.13 1.13 0 0 0 1.088 0l3.206-1.765v3.49c-1.198.453-2.47.68-3.75.668m7.125-2.931q-.518.556-1.125 1.013v-3.482l1.125-.621z"/></g><defs><clipPath id="a"><path d="M0 0h24v24H0z"/></clipPath></defs></svg>
